X:3117
T:Polska efter Lapp-Nils
S:efter Lapp-Nils
O:Jämtland
R:Polska
Z:Per Oldberg 2013-01
N:Plankad efter Youtube-klipp med Bass & Friends: http://www.youtube.com/watch?v=rkYoDjyADo0
N:Jämför [[Musik/1164|+]] Sv L Medelpad nr 99
N:Uppt. av Nils Andersson 1909 efter Jöns Persson, Borgsjö i Medelpad. Han uppgav att han lärt låten av sina föräldrar, som hört Lapp Nils spela den./LS
M:3/4
L:1/8
K:Gminor
 |: {^f}gg/^f/ aa/f/ g/a/g/f/ | d/^c/d/=e/ f/=e/f/g/ f/=e/d/^c/ | df/d/ cA/c/ B/d/B/G/ | A/c/A/G/ [BD][AD] [A2D2] | 
{^f}gg/^f/ aa/f/ g/a/g/f/ | d/^c/d/=e/ f/=e/f/g/ f/=e/d/^c/ | df/d/ cA/c/ B/d/B/G/ | A/c/A/^F/G2G2 :| 
|: B/A/G/^F/ GD DD | B/A/G/^F/ GD/D/ DD | BA/B/ cB/c/ d>c | BA/G/ ^F/G/A/F/ D2 | 
B/A/G/^F/ GD DD | B/A/G/^F/ GD/D/ DD | BA/B/ cB/c/ dd/e/ | fg/f/ ed/c/ d2 | 
dg ^f/g/a/f/ gd | fg/f/ ed/c/ d2 | df/d/ c/e/c/A/ B/d/B/G/ | A/c/A/G/ [BD][AD] [A2D2] |
{^f}gg/^f/ aa/f/ g/a/g/f/ | d/^c/d/=e/ f/=e/f/g/ f/=e/d/^c/ | df/d/ cA/c/ B/d/B/G/ | A/c/A/^F/G2G2 :| 
(:musicend:)





(:music:)
